svgs/regular/republican.svg

<svg xmlns="http://www.w3.org/2000/svg" viewBox="0 0 640 512"><!-- Font Awesome Pro 6.0.0-alpha2 by @fontawesome - https://fontawesome.com License - https://fontawesome.com/license (Commercial License) --><path d="M189 144.25L161.625 140.25L149.375 115.375C147.25 111 140.875 110.875 138.75 115.375L126.5 140.25L99.125 144.25C94.25 144.875 92.25 151 95.75 154.375L115.625 173.75L110.875 201C110.125 205.875 115.25 209.625 119.625 207.25L144.125 194.375L168.625 207.25C172.875 209.625 178.125 205.875 177.25 201L172.625 173.75L192.375 154.375C195.75 150.875 193.875 144.875 189 144.25ZM317 144.25L289.625 140.25L277.375 115.375C275.25 111 268.875 110.875 266.75 115.375L254.5 140.25L227.125 144.25C222.25 144.875 220.25 151 223.75 154.375L243.625 173.75L238.875 201C238.125 205.875 243.25 209.625 247.625 207.25L272.125 194.375L296.625 207.25C300.875 209.625 306.125 205.875 305.25 201L300.625 173.75L320.375 154.375C323.75 150.875 321.875 144.875 317 144.25ZM445 144.25L417.625 140.25L405.375 115.375C403.25 111 396.875 110.875 394.75 115.375L382.5 140.25L355.125 144.25C350.25 144.875 348.25 151 351.75 154.375L371.625 173.75L366.875 201C366.125 205.875 371.25 209.625 375.625 207.25L400.125 194.375L424.625 207.25C428.875 209.625 434.125 205.875 433.25 201L428.625 173.75L448.375 154.375C451.75 150.875 449.875 144.875 445 144.25ZM624 320H608C599.25 320 592 327.25 592 336V408C592 421.25 581.25 432 568 432S544 421.25 544 408V192C544 103.625 472.375 32 384 32H160C71.625 32 0 103.625 0 192V448C0 465.75 14.25 480 32 480H128C145.75 480 160 465.75 160 448V384H288V448C288 465.75 302.25 480 320 480H416C433.75 480 448 465.75 448 448V384H496V403.75C496 441.25 523 475.75 560.375 479.625C562.875 479.875 565.5 480 568 480C607.75 480 640 447.75 640 408V336C640 327.25 632.75 320 624 320ZM496 336H432C414.25 336 400 350.25 400 368V432H336V368C336 350.25 321.75 336 304 336H144C126.25 336 112 350.25 112 368V432H48V288H496V336ZM496 240H48V192C48 130.125 98.125 80 160 80H384C445.75 80 496 130.25 496 192V240Z"/></svg>

<svg xmlns="http://www.w3.org/2000/svg" viewBox="0 0 640 512"><!-- Font Awesome Pro 5.15.1 by @fontawesome - https://fontawesome.com License - https://fontawesome.com/license (Commercial License) --><path d="M189 144.2l-27.4-4-12.2-24.8c-2.2-4.4-8.5-4.5-10.7 0l-12.2 24.8-27.4 4c-4.9.7-6.9 6.8-3.3 10.2l19.8 19.3-4.7 27.3c-.8 4.9 4.3 8.6 8.7 6.3l24.5-12.9 24.5 12.9c4.3 2.3 9.5-1.4 8.7-6.3l-4.7-27.3 19.8-19.3c3.4-3.5 1.5-9.5-3.4-10.2zm128 0l-27.4-4-12.2-24.8c-2.2-4.4-8.5-4.5-10.7 0l-12.2 24.8-27.4 4c-4.9.7-6.9 6.8-3.3 10.2l19.8 19.3-4.7 27.3c-.8 4.9 4.3 8.6 8.7 6.3l24.5-12.9 24.5 12.9c4.3 2.3 9.5-1.4 8.7-6.3l-4.7-27.3 19.8-19.3c3.4-3.5 1.5-9.5-3.4-10.2zm128 0l-27.4-4-12.2-24.8c-2.2-4.4-8.5-4.5-10.7 0l-12.2 24.8-27.4 4c-4.9.7-6.9 6.8-3.3 10.2l19.8 19.3-4.7 27.3c-.8 4.9 4.3 8.6 8.7 6.3l24.5-12.9 24.5 12.9c4.3 2.3 9.5-1.4 8.7-6.3l-4.7-27.3 19.8-19.3c3.4-3.5 1.5-9.5-3.4-10.2zM624 320h-16c-8.8 0-16 7.2-16 16v72c0 13.2-10.8 24-24 24s-24-10.8-24-24V192c0-88.4-71.6-160-160-160H160C71.6 32 0 103.6 0 192v256c0 17.7 14.3 32 32 32h96c17.7 0 32-14.3 32-32v-64h128v64c0 17.7 14.3 32 32 32h96c17.7 0 32-14.3 32-32v-64h48v19.7c0 37.6 27 72 64.4 75.9 2.5.3 5.1.4 7.6.4 39.7 0 72-32.3 72-72v-72c0-8.8-7.2-16-16-16zm-128 16h-64c-17.7 0-32 14.3-32 32v64h-64v-64c0-17.7-14.3-32-32-32H144c-17.7 0-32 14.3-32 32v64H48V288h448v48zm0-96H48v-48c0-61.9 50.1-112 112-112h224c61.8 0 112 50.2 112 112v48z"/></svg>
